X:471
T:Trip to Fleetville
C:Barry Goodman
K:G
L:1/8
M:4/4
g2 d2 ed ce | d2 B2 cB Ac | B2 G2 GA B2 | c2 B2 A4 |
g2 d2 ed ce | d2 B2 cB Ac | B2 G2 GA B2 | A2 F2 G4 :|
EF GF E2 G2 | FG AG F2 A2 | GA BA G2 B2 | c2 B2 A4 |
EF GF E2 G2 | FG AG F2 A2 | GA BA G2 B2 | A2 F2 G4 :|
